X: 112
T: Lovely Leitrim
M:3/4
R:waltz
L:1/4
Z:added by Alf warnock alf0@rogers.com - www.alfwarnock.info/alfs
K:A
C|"A"E2 F|C2 E|"D"F2 B|A2 F|"A"E C2|"E7"B,2 C|"A"A,3 -|A,2 E|
A2 G|A2 B|"D"A2 G|F2 E|"Bm"F2 B|A G F|"E7"E3 -|E2 E|
"A"A2 G|A2 B|"D"A2 G|F2 E|"Bm"F2 B|A G F|"E7"E3|E A, C|
"A"E2 F|C2 E|"D"F2 B|A2 F|"A"E C2|"E7"B,2 C|"A"A,3 -|A,3||

